source/img/services/services-nav/box-close-hover.svg

<svg width="32" height="32" viewBox="0 0 32 32" fill="none" xmlns="http://www.w3.org/2000/svg">
<path d="M15.99 7L20.5504 8.94587L25.8159 11.1926L25.9119 22.3419L15.99 25.6353L6 22.3419L6.20158 11.1719L10.3879 8.32659L11.5627 8.77221C12.0264 8.57475 12.6466 8.37925 13.1022 8.1848L11.9881 7.79995L15.99 7Z" fill="#B4D1FA"/>
<path d="M6.20158 11.1719L15.99 15.1294M6.20158 11.1719L11.0958 13.1506L15.99 15.1294M6.20158 11.1719L6 22.3419L15.99 25.6353M6.20158 11.1719L10.3879 8.32659L11.5627 8.77221M15.99 7L25.8159 11.1926M15.99 7L20.5504 8.94587L25.8159 11.1926M15.99 7L11.9881 7.79995L13.1022 8.1848M25.8159 11.1926L15.99 15.1294M25.8159 11.1926L21.4475 11.527L18.1863 10.2711M25.8159 11.1926L25.9119 22.3419L15.99 25.6353M15.99 15.1294L19.4422 11.8713L16.8089 10.818M15.99 15.1294V25.6353M15.3505 10.2711L16.8089 9.70397M15.3505 10.2711L16.8089 10.818M15.3505 10.2711L11.5627 8.77221M16.8089 9.70397L18.1863 10.2711M16.8089 9.70397L13.1022 8.1848M16.8089 10.818L18.1863 10.2711M11.5627 8.77221C12.0264 8.57475 12.6466 8.37925 13.1022 8.1848" stroke="#0A3D76" stroke-width="0.7" stroke-linejoin="round"/>
</svg>

<svg width="32" height="32" fill="none" xmlns="http://www.w3.org/2000/svg"><path d="M15.99 7l4.56 1.946 5.266 2.247.096 11.149-9.922 3.293L6 22.342l.202-11.17 4.186-2.845 1.175.445c.463-.197 1.084-.393 1.54-.587L11.987 7.8 15.99 7z" fill="#B4D1FA"/><path d="M6.202 11.172l9.788 3.957m-9.788-3.957l4.894 1.979 4.894 1.978m-9.788-3.957L6 22.342l9.99 3.293M6.202 11.172l4.186-2.845 1.175.445M15.99 7l9.826 4.193M15.99 7l4.56 1.946 5.266 2.247M15.99 7l-4.002.8 1.114.385m12.714 3.008l-9.826 3.936m9.826-3.936l-4.368.334-3.262-1.256m7.63.922l.096 11.149-9.922 3.293m0-10.506l3.452-3.258-2.633-1.053m-.819 4.311v10.506m-.64-15.364l1.459-.567m-1.459.567l1.459.547m-1.459-.547l-3.787-1.499m5.246.932l1.377.567m-1.377-.567l-3.707-1.52m3.707 2.634l1.377-.547m-6.623-1.499c.463-.197 1.084-.393 1.54-.587" stroke="#0A3D76" stroke-width=".7" stroke-linejoin="round"/></svg>
